app/assets/images/heroicons/micro/arrow-turn-left-down.svg

<svg width="16" height="16" viewBox="0 0 16 16" fill="none" xmlns="http://www.w3.org/2000/svg">
<path fill-rule="evenodd" clip-rule="evenodd" d="M5.46967 2.21967C5.61032 2.07902 5.80109 2 6 2H13.25C13.6642 2 14 2.33579 14 2.75C14 3.16421 13.6642 3.5 13.25 3.5H6.75L6.75 11.4393L7.71967 10.4697C8.01256 10.1768 8.48744 10.1768 8.78033 10.4697C9.07322 10.7626 9.07322 11.2374 8.78033 11.5303L6.53033 13.7803C6.23744 14.0732 5.76256 14.0732 5.46967 13.7803L3.21967 11.5303C2.92678 11.2374 2.92678 10.7626 3.21967 10.4697C3.51256 10.1768 3.98744 10.1768 4.28033 10.4697L5.25 11.4393L5.25 2.75C5.25 2.55109 5.32902 2.36032 5.46967 2.21967Z" fill="black"/>
</svg>

<svg xmlns="http://www.w3.org/2000/svg" viewBox="0 0 16 16" fill="currentColor" aria-hidden="true" data-slot="icon">
  <path fill-rule="evenodd" d="M5.47 2.22A.75.75 0 0 1 6 2h7.25a.75.75 0 0 1 0 1.5h-6.5v7.94l.97-.97a.75.75 0 0 1 1.06 1.06l-2.25 2.25a.75.75 0 0 1-1.06 0l-2.25-2.25a.75.75 0 1 1 1.06-1.06l.97.97V2.75a.75.75 0 0 1 .22-.53Z" clip-rule="evenodd"/>
</svg>
